X:1
T:RVW2/1/45 Green Bushes-0
T:RVW2/1/45 Green Bushes-0
T:Sung by Mr. Wiltshire (of Fowlmere) at the Union, Royston, July 31st 1907 (1 of 2)
T:Transcribed by Simon Furey and Lewis Jones
C:Transcribed by Simon Furey and Lewis Jones
L:1/8
Q:1/4=150
M:3/4
K:Bb
V:1 treble 
V:1
"^Editorial suggestion" C2 | F2 F2 GF | E2 F2 AB | c2 cB GF | E2 F2 G2 | F3 A GF | E2 F2 AB | %7
 c2 e2 d2 | c4 B2 | c2 c2 f2 | c2 d2 e2 | GA cA GF | E2 F2 G2 | F3 A GF | E2 F2 AB | c2 cB G2 | %16
 F4 |] %17

